X: 1
T: the Chicago Reel
C: trad. Ireland
R: reel
Z: 2020 John Chambers <jc:trillian.mit.edu>
S: https://www.facebook.com/groups/Fiddletuneoftheday/ 2020-10-04
S: https://www.facebook.com/groups/Fiddletuneoftheday/photos/
B: O'Neill: Dance Music of Ireland: 1001 Gems
B:Treoir, vol. 37, No. 3, 2005
M: C|
L: 1/8
K: Ador	% and/or C
   AB |\
"Am"cded cAGE | "G"G2GE GAcd | "C"ecgc acgc | "Am"eaag "G"eged |
 "C"cded cAGE | "G"G2GE GAcd | "Am"eaag "G"eged | "Em"cABG "Am"A2 :|
|: AB |\
"Am"cdef g2ef | "G"gedc BGGB | "Am"cdef g2gf | "Em"eaag aged |
"A"^cdef g3e | "D"a3f "G"g3e | "D"fafd "Em"eged | "Em"cABG "Am"A2 :|
_
